!!!!SEGMENT: pl-kk--kk-i-40--007-005_palestrina-giovanni-pierluigi-da--missa-sacerdos-et-pontifex-agnus-dei.krn
!!!cenid: 16xx:1305
!!!COM: Palestrina, Giovanni Pierluigi da
!!!COM-rismid: pe1904
!!!CDT: ~1525-1594/02/02
!!!CNT: Italian
!!!OPR: Missa Sacerdos et Pontifex
!!!OTL: Agnus Dei
!!!OMV: 005
!!!PDT:
!!!AGN: Sacred; Mass
!!!SMS-siglum: PL-Kk
!!!SMS-shelfmark: Kk.I.40
!!!SMS-shelfwork: 007-005 M
!!!SMS-variant:
!!!SMS-altvar:
!!!NIFC-rismid: 1001154493
!!!URL-scan: http://repozytorium.nifc.pl/skany/pl-kk-nut--i-40
!!!ONB-nifc: UWAGA: części Mszy: 1. Kyrie, 2. Et in terra, 3. Sanctus, 4. Benedictus, 5. Agnus Dei. Skan 0010-0011
!!!key:
**kern	**text
*Iempty	*
*I"Baſso Ripieno.	*
*I'B rip	*
*clefF3	*
*k[b-]	*
*g:dor	*
*M2/1	*
*met(c|)	*
=1-	=1-
!LO:TX:t=P:global:problem=oddech/cezura na różnej wysokości	!
!LO:TX:t=P:znaki:problem= B- nad BB-	!
!LO:TX:t=P:problem=kreska pseudotaktowa	!
0r	.
=2-	=2-
!LO:TX:t=P:problem=kreska pseudotaktowa	!
0.G	A-
=3-	=3-
.	.
!LO:TX:a:t=P:problem=# above	!
1F#X,	-gnus
=4-	=4-
1G	De-
*2\right	*
2.B-\	.
!LO:TX:t=P:problem=kreska pseudotaktowa	!
4A\	.
=5-	=5-
4G\	.
4Fny\	.
1G	.
2C/	.
=6-	=6-
*lig	*
1D	.
!LO:TX:a:t=P:problem=♭ above	!
1E-X	.
*Xlig	*
=7-	=7-
2BB-,/	-i
1B-	A-
!LO:TX:t=P:problem=kreska pseudotaktowa	!
2A\	-gn(us)
=8-	=8-
1.B-	De-
!LO:TX:t=P:problem=kreska pseudotaktowa	!
2F\	.
=9-	=9-
2G\	.
2E-X/	.
1F	-i.
=10-	=10-
!LO:TX:t=P:problem=kreska pseudotaktowa	!
0BB-	.
=11-	=11-
00r	.
=12-	=12-
.	.
=13-	=13-
!LO:TX:t=P:problem=kreska pseudotaktowa	!
0r	.
=14-	=14-
!LO:TX:t=P:problem=kreska pseudotaktowa	!
1F	Qui
1G	tol-
=15-	=15-
!LO:TX:t=P:problem=kreska pseudotaktowa	!
1A,	-lis
1F	pec-
=16-	=16-
2G\	-ca-
2A\	-ta
1B-	.
=17-	=17-
*lig	*
1A	mun-
!LO:TX:t=P:problem=kreska pseudotaktowa	!
1D	-di
*Xlig	*
!LO:PB:g=original	!
=18-	=18-
!LO:N:vis=00	!
00r	.
=19-	=19-
.	.
=20-	=20-
!LO:TX:t=P:problem=kreska pseudotaktowa	!
!LO:N:vis=00	!
00r	.
=21-	=21-
.	.
=22-	=22-
2r	.
1c	mi-
!LO:TX:t=P:problem=kreska pseudotaktowa	!
2B-\	-se-
=23-	=23-
2.A\	-re-
4G\	.
2F/	.
!LO:TX:t=P:problem=kreska pseudotaktowa	!
2Eny/	-re
=24-	=24-
2F\	no-
!LO:TX:t=P:problem=kreska pseudotaktowa	!
2G\	.
4D/	.
4E/	.
4F/	.
!LO:TX:t=P:problem=kreska pseudotaktowa	!
4G/	.
=25-	=25-
4A\	.
4B-\	.
1c	.
2B-\	.
=26-	=26-
1A	-bis
!LO:TX:t=P:problem=kreska pseudotaktowa	!
1G,	.
=27-	=27-
1.B-	mi-
*2\left	*
2A\	-ſe-
=28-	=28-
*2\right	*
2.G\	-re-
!LO:TX:t=P:problem=kreska pseudotaktowa	!
!LO:TX:t=P:4\right:problem	!
4F\	.
2E-X/	-re
!LO:TX:t=P:problem=kreska pseudotaktowa	!
2D/	.
=29-	=29-
2E-y/	no-
2F/	-bis.
!LO:TX:t=P:problem=kreska pseudotaktowa	!
1BB-	.
=30-	=30-
!LO:TX:a:t=6.	!
!LO:N:vis=00	!
00r	.
=31-	=31-
.	.
=32-	=32-
!LO:TX:t=P:problem=kreska pseudotaktowa	!
0r	.
=33-	=33-
2r	.
1G	mi-
2F/	-ſe-
=34-	=34-
2.E-X/	-re-
!LO:TX:t=P:problem=kreska pseudotaktowa	!
4D/	.
2C/	-re
2BB-/	.
=35-	=35-
!LO:TX:a:t=4.	!
00C/	no-
=36-	=36-
.	.
=37-	=37-
!LO:TX:Bi:a:t=Repetat(ur)	!
0G;>	-bis.
!LO:LB:g=original	!
=38||	=38||
!LO:TX:a:t=a 6. Voci.	!
!LO:N:vis=00	!
00r	.
=39-	=39-
.	.
=40-	=40-
!LO:N:vis=00	!
00r	.
=41-	=41-
.	.
=42-	=42-
!LO:TX:t=P:problem=kreska pseudotaktowa	!
0r	.
=43-	=43-
0G	A-
=44-	=44-
*lig	*
1G	-gnus
!LO:TX:t=P:problem=kreska pseudotaktowa	!
1F	.
*Xlig	*
=45-	=45-
2.G\	De-
!LO:TX:t=P:problem=kreska pseudotaktowa	!
4A\	.
2B-\	.
1c\	.
=46-	=46-
.	.
2B-\	.
1A	-i
=47-	=47-
!LO:TX:t=P:problem=kreska pseudotaktowa	!
1G,	.
00r	.
=48-	=48-
.	.
=49-	=49-
.	.
0r	.
=50-	=50-
.	.
!LO:TX:t=P:problem=kreska pseudotaktowa	!
1r	.
=51-	=51-
1D	Qui
1G	tol-
=52-	=52-
!LO:TX:t=P:problem=kreska pseudotaktowa	!
1D,	-lis
1d	pec-
=53-	=53-
2c\	-ca-
!LO:TX:t=P:problem=kreska pseudotaktowa	!
2B-\	-ta
2.A\	mun-
4B-\	.
=54-	=54-
1c	-di
!LO:TX:t=P:problem=kreska pseudotaktowa	!
1F,	.
=55-	=55-
!LO:N:vis=00	!
00r	.
=56-	=56-
.	.
=57-	=57-
!LO:TX:t=P:problem=kreska pseudotaktowa	!
0r	.
=58-	=58-
2r	.
2A\	Qui
1B-	tol-
=59-	=59-
2A,\	-lis
!LO:TX:t=P:problem=kreska pseudotaktowa	!
2F\	pec-
(>2.A\	-ca-
4B-\	.
=60-	=60-
2c\)	-ta
*custos:c	*
!LO:TX:t=P:problem=kreska pseudotaktowa	!
2d\	.
!LO:LB:g=original	!
1c	mun-
=61-	=61-
!LO:TX:t=P:problem=kreska pseudotaktowa	!
1C,	-di
1C	pec-
=62-	=62-
2E/	-ca-
2F/	-ta
1C	mun-
=63-	=63-
!LO:TX:t=P:problem=kreska pseudotaktowa	!
1F,	-di
00r	.
=64-	=64-
.	.
=65-	=65-
.	.
00r	.
=66-	=66-
.	.
=67-	=67-
.	.
!LO:TX:t=P:problem=kreska pseudotaktowa	!
0r	.
=68-	=68-
.	.
0B-	Do-
=69-	=69-
.	.
1F	-na
=70-	=70-
2.G\	no-
4F/	.
2E-X/	.
!LO:TX:t=P:problem=kreska pseudotaktowa	!
2D/	-bis
=71-	=71-
1C	pa-
2BB-,/	-cem
1B-\	do-
=72-	=72-
.	.
!LO:TX:t=P:problem=kreska pseudotaktowa	!
2A\	-na
1G	no-
=73-	=73-
1C,	-bis
0BB-	pa-
=74-	=74-
.	.
!LO:TX:t=P:problem=kreska pseudotaktowa	!
1C,	-cem
=75-	=75-
*	*ij
2.G\	do-
4A\	-na
2B-\	no-
2F\	-bis
=76-	=76-
1G	pa-
!LO:TX:t=P:problem=kreska pseudotaktowa	!
1D	-cem
*	*Xij
=77-	=77-
1F	do-
1C	-na
=78-	=78-
2.D/	no-
4C/	.
2BB-/	-bis
!LO:TX:t=P:problem=kreska pseudotaktowa	!
2C/	.
=79-	=79-
1.G	pa-
4F/	.
4Eny/	.
=80-	=80-
0D	-cem.
=81-	=81-
0G;>	.
==	==
*-	*-
!!!RDF**kern: > = above
!!!RDF**kern: < = below
!!!EED: Antoni Szymański
!!!EST: 2021-08-01
!!!AIN: 1 empty
!!!ENC: Berenika Jozajtis
!!!END: 2021-07-05
